icons/fold-24.svg

<svg width="24" height="24" viewBox="0 0 24 24" xmlns="http://www.w3.org/2000/svg">
  <path fill-rule="evenodd" clip-rule="evenodd" d="M12 15C12.1989 15 12.3897 15.079 12.5303 15.2197L15.7803 18.4697C16.0732 18.7626 16.0732 19.2374 15.7803 19.5303C15.4874 19.8232 15.0126 19.8232 14.7197 19.5303L12 16.8107L9.28033 19.5303C8.98744 19.8232 8.51256 19.8232 8.21967 19.5303C7.92678 19.2374 7.92678 18.7626 8.21967 18.4697L11.4697 15.2197C11.6103 15.079 11.8011 15 12 15Z"/>
  <path fill-rule="evenodd" clip-rule="evenodd" d="M12 15.75C12.4142 15.75 12.75 16.0858 12.75 16.5L12.75 22.25C12.75 22.6642 12.4142 23 12 23C11.5858 23 11.25 22.6642 11.25 22.25L11.25 16.5C11.25 16.0858 11.5858 15.75 12 15.75Z"/>
  <path fill-rule="evenodd" clip-rule="evenodd" d="M12.5303 8.7803C12.2374 9.07319 11.7626 9.07319 11.4697 8.7803L8.21967 5.5303C7.92678 5.23741 7.92678 4.76253 8.21967 4.46964C8.51256 4.17675 8.98744 4.17675 9.28033 4.46964L12 7.18931L14.7197 4.46964C15.0126 4.17675 15.4874 4.17675 15.7803 4.46964C16.0732 4.76253 16.0732 5.23741 15.7803 5.5303L12.5303 8.7803Z"/>
  <path fill-rule="evenodd" clip-rule="evenodd" d="M12 8.49997C11.5858 8.49997 11.25 8.16418 11.25 7.74997L11.25 1.75C11.25 1.33579 11.5858 1 12 1C12.4142 1 12.75 1.33579 12.75 1.75L12.75 7.74997C12.75 8.16418 12.4142 8.49997 12 8.49997Z"/>
  <path fill-rule="evenodd" clip-rule="evenodd" d="M10.75 12C10.75 11.5858 11.0858 11.25 11.5 11.25H12.5C12.9142 11.25 13.25 11.5858 13.25 12C13.25 12.4142 12.9142 12.75 12.5 12.75H11.5C11.0858 12.75 10.75 12.4142 10.75 12Z"/>
  <path fill-rule="evenodd" clip-rule="evenodd" d="M2.75 12C2.75 11.5858 3.08579 11.25 3.5 11.25H4.5C4.91421 11.25 5.25 11.5858 5.25 12C5.25 12.4142 4.91421 12.75 4.5 12.75H3.5C3.08579 12.75 2.75 12.4142 2.75 12Z"/>
  <path fill-rule="evenodd" clip-rule="evenodd" d="M14.75 12C14.75 11.5858 15.0858 11.25 15.5 11.25H16.5C16.9142 11.25 17.25 11.5858 17.25 12C17.25 12.4142 16.9142 12.75 16.5 12.75H15.5C15.0858 12.75 14.75 12.4142 14.75 12Z"/>
  <path fill-rule="evenodd" clip-rule="evenodd" d="M6.75 12C6.75 11.5858 7.08579 11.25 7.5 11.25H8.5C8.91421 11.25 9.25 11.5858 9.25 12C9.25 12.4142 8.91421 12.75 8.5 12.75H7.5C7.08579 12.75 6.75 12.4142 6.75 12Z"/>
  <path fill-rule="evenodd" clip-rule="evenodd" d="M18.75 12C18.75 11.5858 19.0858 11.25 19.5 11.25H20.5C20.9142 11.25 21.25 11.5858 21.25 12C21.25 12.4142 20.9142 12.75 20.5 12.75H19.5C19.0858 12.75 18.75 12.4142 18.75 12Z"/>
</svg>

<svg xmlns="http://www.w3.org/2000/svg" width="24" height="24" viewBox="0 0 24 24"><path fill-rule="evenodd" d="M12 15a.75.75 0 01.53.22l3.25 3.25a.75.75 0 11-1.06 1.06L12 16.81l-2.72 2.72a.75.75 0 01-1.06-1.06l3.25-3.25A.75.75 0 0112 15z"/><path fill-rule="evenodd" d="M12 15.75a.75.75 0 01.75.75v5.75a.75.75 0 01-1.5 0V16.5a.75.75 0 01.75-.75zm.53-6.97a.75.75 0 01-1.06 0L8.22 5.53a.75.75 0 011.06-1.06L12 7.19l2.72-2.72a.75.75 0 111.06 1.06l-3.25 3.25z"/><path fill-rule="evenodd" d="M12 8.5a.75.75 0 01-.75-.75v-6a.75.75 0 011.5 0v6a.75.75 0 01-.75.75zM10.75 12a.75.75 0 01.75-.75h1a.75.75 0 010 1.5h-1a.75.75 0 01-.75-.75zm-8 0a.75.75 0 01.75-.75h1a.75.75 0 010 1.5h-1a.75.75 0 01-.75-.75zm12 0a.75.75 0 01.75-.75h1a.75.75 0 010 1.5h-1a.75.75 0 01-.75-.75zm-8 0a.75.75 0 01.75-.75h1a.75.75 0 010 1.5h-1a.75.75 0 01-.75-.75zm12 0a.75.75 0 01.75-.75h1a.75.75 0 010 1.5h-1a.75.75 0 01-.75-.75z"/></svg>
